X:1
T:Old German
T:Old German
T:“Sacred Melody,”  1761
T:Public Domain Courtesy of the Cyber Hymnal™
C:“Sacred Melody,”  1761
Z:Public Domain
Z:Courtesy of the Cyber Hymnal™
%%score ( 1 2 ) ( 3 4 )
L:1/8
Q:1/4=110
M:3/4
K:C
V:1 treble 
V:2 treble 
V:3 bass 
V:4 bass 
V:1
 EE | [EA]2 [FB]2 [E^G]2 | [CA]4 [EB]2 | [Ec]2 [Fd]2 B2 | [CA]4 [Ee]>[Ed] | [Ec]2 [GB]2 [FA]2 | %6
 [EG]2 E2 [CA]2 | [FA]3 [FB] [E^G]2 | [EA]4 | [^GB][GB] | [Ac]2 [Ec]2 [Gd]2 | [Ge]4 [Gd]2 | %12
 [Ge]2 [Gd]2 [Ec]2 | [EB]4 [^Ge]>[Gd] | [Ac]2 [GB]2 [FA]2 | [EG]2 [CE]2 [CA]2 | [FA]3 [FB] [E^G]2 | %17
 [EA]4 |] %18
V:2
 EE | x6 | x6 | x4 (E>D) | x6 | x6 | x2 E2 x2 | x6 | x4 | x2 | x6 | x6 | x6 | x6 | x6 | x6 | x6 | %17
 x4 |] %18
V:3
 [A,C][A,C] | [A,C]2 [D,D]2 [E,B,]2 | [F,A,]4 [E,^G,]2 | A,2 [D,A,]2 [E,^G,]2 | %4
 A,4 [^G,B,]>[G,B,] | A,2 [E,E]2 [F,C]2 | [C,C]2 [C,G,]2 [F,A,]2 | [D,A,]3 [D,D] [E,B,]2 | %8
 [A,,C]4 | [E,E][E,E] | [A,E]2 [A,C]2 [G,B,]2 | C4 [G,B,]2 | C2 [G,B,]2 A,2 | %13
 [E,^G,]4 [E,E]>[E,E] | [A,E]2 [E,E]2 [F,C]2 | [C,C]2 [C,G,]2 [F,A,]2 | [D,D]3 [D,D] [E,B,]2 | %17
 [A,,C]4 |] %18
V:4
 x2 | x6 | x6 | A,2 x4 | A,4 x2 | A,2 x4 | x6 | x6 | x4 | x2 | x6 | C4 x2 | C2 A,2 x2 | x6 | x6 | %15
 x6 | x6 | x4 |] %18

